source/img/icon-reviews-document.svg

<svg width="54" height="54" viewBox="0 0 54 54" fill="none" xmlns="http://www.w3.org/2000/svg">
<path d="M6.28439 6.29723V53.0737C6.28439 53.5706 6.68716 53.9733 7.18404 53.9733H41.3669C41.8634 53.9733 42.2662 53.5706 42.2662 53.0737V15.293C42.2662 15.2729 42.2566 15.2559 42.2547 15.2363C42.2503 15.1573 42.2347 15.0795 42.2088 15.0051C42.1987 14.9762 42.1917 14.9484 42.1791 14.9202C42.1354 14.8224 42.0746 14.7331 41.999 14.6568L33.0037 5.6614C32.9273 5.58544 32.8377 5.52467 32.7391 5.48132C32.7121 5.46983 32.6847 5.4602 32.6565 5.45168C32.5813 5.42574 32.5031 5.41018 32.4234 5.40499C32.4082 5.40758 32.3905 5.39795 32.3716 5.39795H7.18404C6.68716 5.39795 6.28439 5.80034 6.28439 6.29723ZM39.1952 14.3933H33.2708V8.4689L39.1952 14.3933ZM8.08332 7.19687H31.4719V15.293C31.4719 15.7895 31.8747 16.1922 32.3712 16.1922H40.4673V52.1744H8.08332V7.19687Z" fill="#333333"/>
<path d="M44.0655 46.7764V48.5754H46.7641C47.2609 48.5754 47.6637 48.173 47.6637 47.6761V0.899647C47.6637 0.402766 47.2609 0 46.7641 0H12.5812C12.0843 0 11.6815 0.402766 11.6815 0.899647V3.59822H13.4808V1.79892H45.8644V46.7764H44.0655Z" fill="#333333"/>
<path d="M13.4808 17.9907H35.0698V19.7897H13.4808V17.9907Z" fill="#333333"/>
<path d="M13.4808 12.5938H20.6773V14.393H13.4808V12.5938Z" fill="#333333"/>
<path d="M13.4808 23.3882H27.8737V25.1875H13.4808V23.3882Z" fill="#333333"/>
<path d="M29.6726 23.3882H35.0698V25.1875H29.6726V23.3882Z" fill="#333333"/>
<path d="M13.4808 28.7856H35.0698V30.5849H13.4808V28.7856Z" fill="#333333"/>
<path d="M13.4808 39.5801H35.0698V41.3794H13.4808V39.5801Z" fill="#333333"/>
<path d="M21.5765 34.1831H35.0698V35.982H21.5765V34.1831Z" fill="#333333"/>
<path d="M13.4808 34.1831H19.7776V35.982H13.4808V34.1831Z" fill="#333333"/>
<path d="M13.4808 44.978H17.0791V46.7769H13.4808V44.978Z" fill="#333333"/>
<path d="M18.878 44.978H35.0698V46.7769H18.878V44.978Z" fill="#333333"/>
</svg>

<svg viewBox="0 0 54 54" fill="none" xmlns="http://www.w3.org/2000/svg"><path d="M6.284 6.297v46.777a.9.9 0 0 0 .9.9h34.183a.9.9 0 0 0 .9-.9V15.293c0-.02-.01-.037-.012-.057a.847.847 0 0 0-.046-.23c-.01-.03-.017-.058-.03-.086a.89.89 0 0 0-.18-.263L33.004 5.66a.873.873 0 0 0-.347-.21.891.891 0 0 0-.234-.046c-.015.003-.032-.007-.051-.007H7.184a.9.9 0 0 0-.9.9Zm32.911 8.096h-5.924V8.47l5.924 5.924ZM8.083 7.197h23.389v8.096a.9.9 0 0 0 .9.9h8.095v35.981H8.083V7.197Z" fill="#333"/><path d="M44.066 46.776v1.8h2.698a.9.9 0 0 0 .9-.9V.9a.9.9 0 0 0-.9-.9H12.581a.9.9 0 0 0-.9.9v2.698h1.8v-1.8h32.383v44.978h-1.798Z" fill="#333"/><path d="M13.48 17.99h21.59v1.8H13.48v-1.8ZM13.48 12.594h7.197v1.799h-7.196v-1.8ZM13.48 23.388h14.394v1.8H13.48v-1.8ZM29.673 23.388h5.397v1.8h-5.397v-1.8ZM13.48 28.786h21.59v1.799H13.48v-1.8ZM13.48 39.58h21.59v1.8H13.48v-1.8ZM21.576 34.183H35.07v1.799H21.576v-1.799ZM13.48 34.183h6.298v1.799H13.48v-1.799ZM13.48 44.978h3.6v1.799h-3.6v-1.799ZM18.878 44.978H35.07v1.799H18.878v-1.799Z" fill="#333"/></svg>
